icon/lg/loader.svg

<?xml version="1.0" encoding="UTF-8" standalone="no"?>
<svg viewBox="0 0 256 247" version="1.1" xmlns="http://www.w3.org/2000/svg" xmlns:xlink="http://www.w3.org/1999/xlink" preserveAspectRatio="xMidYMid" height="1em" width="1em">
  <g fill="#497BBB">
    <path d="M165.758529,82.9512863 L224.102428,190.980764 L204.759085,219.708812 L51.3440438,219.708812 L31.866185,190.406831 L90.2011166,82.9512863 L165.758529,82.9512863 L165.758529,82.9512863 Z M181.80624,56.0481664 L74.1937603,56.0481664 L0.492663383,191.810277 L36.9239715,246.611932 L219.076028,246.611932 L255.507337,192.509758 L181.80624,56.0481664 L181.80624,56.0481664 Z"/>
    <path d="M163.870826,145.725233 L121.27422,145.725233 L136.967707,103.128626 L112.306513,103.128626 L78.7628068,170.583715 L177.237193,170.583715 L163.870826,145.725233 Z"/>
    <path d="M9.17788725,192.805692 L54.0164204,233.160372 L206.467433,233.160372 L251.305966,192.805692 L9.17788725,192.805692 Z"/>
    <path d="M128,0 C107.988563,0 91.7659814,16.2808714 91.7659814,36.3685342 C91.7659814,38.4983645 91.9856902,40.5699048 92.3354308,42.5966065 L115.360018,42.5966065 C114.43186,40.7089042 113.866894,38.6149447 113.866894,36.3685342 C113.866894,28.5352425 120.193611,22.1861062 127.995516,22.1861062 C135.801905,22.1861062 142.124138,28.5352425 142.124138,36.3685342 C142.124138,38.6149447 141.554689,40.7089042 140.631015,42.5966065 L163.660085,42.5966065 C164.009826,40.5699048 164.229535,38.4938807 164.229535,36.3685342 C164.234019,16.2808714 148.011437,0 128,0 L128,0 Z"/>
  </g>
</svg>

<svg width="256" height="247" xmlns="http://www.w3.org/2000/svg" preserveAspectRatio="xMidYMid"><g fill="#497BBB"><path d="m165.759 82.951 58.343 108.03-19.343 28.728H51.344l-19.478-29.302L90.201 82.95h75.558Zm16.047-26.903H74.194L.493 191.81l36.431 54.802h182.152l36.431-54.102-73.7-136.462Z"/><path d="M163.87 145.725h-42.596l15.694-42.596h-24.661l-33.544 67.455h98.474l-13.366-24.859ZM9.178 192.806l44.838 40.354h152.451l44.839-40.354H9.178ZM128 0c-20.011 0-36.234 16.28-36.234 36.369 0 2.13.22 4.2.57 6.228h23.024c-.928-1.888-1.493-3.982-1.493-6.228 0-7.834 6.327-14.183 14.129-14.183 7.806 0 14.128 6.35 14.128 14.183 0 2.246-.57 4.34-1.493 6.228h23.03c.349-2.027.569-4.103.569-6.228C164.234 16.28 148.01 0 128 0Z"/></g></svg>
